Papirus/64x64/apps/zen-browser.svg

<svg width="64" height="64" version="1.1" xmlns="http://www.w3.org/2000/svg">
 <path x="0" y="0" width="16" height="16" d="m11.000001 6.0012311h41.999998a6.9999998 6.8748458 0 0 1 7 6.8748459v41.249075a6.9999998 6.8748458 0 0 1-7 6.874845h-41.999998a6.9999998 6.8748458 0 0 1-7.0000002-6.874845v-41.249075a6.9999998 6.8748458 0 0 1 7.0000002-6.8748459z" style="opacity:.2"/>
 <path x="0" y="0" width="16" height="16" d="M 11.000001,4 H 53 a 6.9999998,6.9999241 0 0 1 6.999999,6.999924 V 52.999469 A 6.9999998,6.9999241 0 0 1 53,59.999393 H 11.000001 A 6.9999998,6.9999241 0 0 1 4.0000008,52.999469 V 10.999924 A 6.9999998,6.9999241 0 0 1 11.000001,4 Z" style="fill:#e3e1d4"/>
 <path d="m32 8a25 25 0 0 0-25 25 25 25 0 0 0 25 25 25 25 0 0 0 25-25 25 25 0 0 0-25-25zm0 5a20 20 0 0 1 20 20 20 20 0 0 1-20 20 20 20 0 0 1-20-20 20 20 0 0 1 20-20z" style="opacity:.2"/>
 <path d="m32 7a25 25 0 0 0-25 25 25 25 0 0 0 25 25 25 25 0 0 0 25-25 25 25 0 0 0-25-25zm0 5a20 20 0 0 1 20 20 20 20 0 0 1-20 20 20 20 0 0 1-20-20 20 20 0 0 1 20-20z" style="fill:#f76f53"/>
 <path d="m32 16a17 17 0 0 0-17 17 17 17 0 0 0 17 17 17 17 0 0 0 17-17 17 17 0 0 0-17-17zm0 4a13 13.000001 0 0 1 13 13 13 13.000001 0 0 1-13 13 13 13.000001 0 0 1-13-13 13 13.000001 0 0 1 13-13z" style="opacity:.2"/>
 <path d="m32 15a17 17 0 0 0-17 17 17 17 0 0 0 17 17 17 17 0 0 0 17-17 17 17 0 0 0-17-17zm0 4a13 13.000001 0 0 1 13 13 13 13.000001 0 0 1-13 13 13 13.000001 0 0 1-13-13 13 13.000001 0 0 1 13-13z" style="fill:#f76f53"/>
 <path d="m32 7c-13.807119 0-25 11.192881-25 25 0.010048 0.16678 0.021767 0.333455 0.035156 0.5 0.2720008-13.597806 11.364328-24.483594 24.964844-24.5 13.512628 0.003419 24.577044 10.743453 24.982422 24.25 0.006277-0.083303 0.012136-0.166638 0.017578-0.25 0-13.807119-11.192881-25-25-25zm19.98 25.255859c-0.139937 10.938044-9.041065 19.734354-19.98 19.744141-10.838164-0.017781-19.69006-8.665208-19.961-19.5-0.01511 0.166497-0.02807 0.333177-0.039 0.5 0 11.045695 8.954305 20 20 20s20-8.954305 20-20c-0.0019-0.248147-0.0089-0.496237-0.02-0.744141z" style="fill:#ffffff;opacity:.2"/>
 <path d="m32 23a10 10 0 0 0-10 10 10 10 0 0 0 10 10 10 10 0 0 0 10-10 10 10 0 0 0-10-10zm0 3a7 7 0 0 1 7 7 7 7 0 0 1-7 7 7 7 0 0 1-7-7 7 7 0 0 1 7-7z" style="opacity:.2"/>
 <path d="m32 22a10 10 0 0 0-10 10 10 10 0 0 0 10 10 10 10 0 0 0 10-10 10 10 0 0 0-10-10zm0 3a7 7 0 0 1 7 7 7 7 0 0 1-7 7 7 7 0 0 1-7-7 7 7 0 0 1 7-7z" style="fill:#f76f53"/>
 <path d="m32 15c-9.388841 0-17 7.611159-17 17 0.0093 0.16683 0.02098 0.333515 0.03516 0.5 0.270082-9.179386 7.781494-16.484981 16.96484-16.5 9.09533 4.56e-4 16.579068 7.159712 16.982422 16.246094 0.006455-0.081988 0.012314-0.164021 0.017578-0.246094 0-9.388841-7.611159-17-17-17zm12.961 17.5c-0.268204 6.968608-5.987251 12.484205-12.961 12.5-6.973749-0.015795-12.692796-5.531392-12.961-12.5-0.01624 0.1664-0.0292 0.333098-0.039 0.5 1e-6 7.179702 5.820299 13 13 13s12.999999-5.820298 13-13c-0.0098-0.166902-0.02276-0.3336-0.039-0.5z" style="fill:#ffffff;opacity:.2"/>
 <path d="m32 22c-5.522847 0-10 4.477153-10 10 0.0075 0.166934 0.01926 0.333653 0.03516 0.5 0.26597-5.313104 4.645097-9.487951 9.96484-9.5 5.266661 9.23e-4 9.629909 4.086556 9.976562 9.341797 0.009764-0.11379 0.017578-0.227739 0.023438-0.341797 0-5.522847-4.477153-10-10-10zm-9.964844 10.5c-0.01589 0.166347 0 0 0 0zm16.933844-0.136719c-0.192853 3.711388-3.252623 6.625135-6.969 6.636719-3.662319-0.01313-6.695428-2.847011-6.957-6.5-0.0203 0.1661-0.03466 0.332873-0.043 0.5 0 3.865993 3.134007 7 7 7s7-3.134007 7-7c-7.42e-4 -0.212604-0.01092-0.425064-0.031-0.636719z" style="fill:#ffffff;opacity:.2"/>
</svg>

<svg xmlns="http://www.w3.org/2000/svg" width="64" height="64" version="1.1">
 <path style="opacity:0.2" d="M 11,6 H 53 A 7,6.87 0 0 1 60,12.88 V 54.12 A 7,6.87 0 0 1 53,61 H 11 A 7,6.87 0 0 1 4,54.12 V 12.88 A 7,6.87 0 0 1 11,6 Z"/>
 <path style="fill:#e3e1d4" d="M 11,4 H 53 A 7,7 0 0 1 60,11 V 53 A 7,7 0 0 1 53,60 H 11 A 7,7 0 0 1 4,53 V 11 A 7,7 0 0 1 11,4 Z"/>
 <path style="opacity:0.1" d="M 32,23 A 10,10 0 0 0 22,33 10,10 0 0 0 32,43 10,10 0 0 0 42,33 10,10 0 0 0 32,23 Z M 32,26 A 7,7 0 0 1 39,33 7,7 0 0 1 32,40 7,7 0 0 1 25,33 7,7 0 0 1 32,26 Z M 32,16 A 17,17 0 0 0 15,33 17,17 0 0 0 32,50 17,17 0 0 0 49,33 17,17 0 0 0 32,16 Z M 32,20 A 13,13 0 0 1 45,33 13,13 0 0 1 32,46 13,13 0 0 1 19,33 13,13 0 0 1 32,20 Z M 32,8 A 25,25 0 0 0 7,33 25,25 0 0 0 32,58 25,25 0 0 0 57,33 25,25 0 0 0 32,8 Z M 32,13 A 20,20 0 0 1 52,33 20,20 0 0 1 32,53 20,20 0 0 1 12,33 20,20 0 0 1 32,13 Z"/>
 <path style="fill:#f76f53" d="M 32,22 A 10,10 0 0 0 22,32 10,10 0 0 0 32,42 10,10 0 0 0 42,32 10,10 0 0 0 32,22 Z M 32,25 A 7,7 0 0 1 39,32 7,7 0 0 1 32,39 7,7 0 0 1 25,32 7,7 0 0 1 32,25 Z M 32,15 A 17,17 0 0 0 15,32 17,17 0 0 0 32,49 17,17 0 0 0 49,32 17,17 0 0 0 32,15 Z M 32,19 A 13,13 0 0 1 45,32 13,13 0 0 1 32,45 13,13 0 0 1 19,32 13,13 0 0 1 32,19 Z M 32,7 A 25,25 0 0 0 7,32 25,25 0 0 0 32,57 25,25 0 0 0 57,32 25,25 0 0 0 32,7 Z M 32,12 A 20,20 0 0 1 52,32 20,20 0 0 1 32,52 20,20 0 0 1 12,32 20,20 0 0 1 32,12 Z"/>
 <path style="fill:#ffffff;opacity:0.2" d="M 32,22 C 26.477,22 22,26.477 22,32 22.007,32.167 22.019,32.334 22.035,32.5 22.301,27.187 26.68,23.012 32,23 37.267,23.001 41.63,27.087 41.977,32.342 41.986,32.228 41.994,32.114 42,32 42,26.477 37.523,22 32,22 Z M 22.035,32.5 C 22.019,32.666 22.035,32.5 22.035,32.5 Z M 38.969,32.363 C 38.776,36.075 35.716,38.988 32,39 28.338,38.987 25.305,36.153 25.043,32.5 25.023,32.666 25.008,32.833 25,33 25,36.866 28.134,40 32,40 35.866,40 39,36.866 39,33 38.999,32.787 38.989,32.575 38.969,32.363 Z M 32,15 C 22.611,15 15,22.611 15,32 15.009,32.167 15.021,32.334 15.035,32.5 15.305,23.321 22.817,16.015 32,16 41.095,16 48.579,23.16 48.982,32.246 48.989,32.164 48.995,32.082 49,32 49,22.611 41.389,15 32,15 Z M 44.961,32.5 C 44.693,39.469 38.974,44.984 32,45 25.026,44.984 19.307,39.469 19.039,32.5 19.023,32.666 19.01,32.833 19,33 19,40.18 24.82,46 32,46 39.18,46 45,40.18 45,33 44.99,32.833 44.977,32.666 44.961,32.5 Z M 32,7 C 18.193,7 7,18.193 7,32 7.01,32.167 7.0218,32.333 7.0352,32.5 7.3072,18.902 18.399,8.0164 32,8 45.513,8.0034 56.577,18.743 56.982,32.25 56.989,32.167 56.995,32.083 57,32 57,18.193 45.807,7 32,7 Z M 51.98,32.256 C 51.84,43.194 42.939,51.99 32,52 21.162,51.982 12.31,43.335 12.039,32.5 12.024,32.666 12.011,32.833 12,33 12,44.046 20.954,53 32,53 43.046,53 52,44.046 52,33 51.998,32.752 51.991,32.504 51.98,32.256 Z"/>
 <path style="fill:#ffffff;opacity:0.2" d="M 11 4 A 7 7 0 0 0 4 11 L 4 12 A 7 7 0 0 1 11 5 L 53 5 A 7 7 0 0 1 60 12 L 60 11 A 7 7 0 0 0 53 4 L 11 4 z"/>
</svg>
